**kern	**kern
*staff2	*staff1
*clefF4	*clefG2
*k[b-]	*k[b-]
*M3/4	*M3/4
=-	=-
4r	8c'L
.	8c'J
=53	=53
2F	(8fL
.	8cJ
.	8AL)
.	(8fJ
4r	8aL
.	8fJ
=54	=54
2C	8gL
.	8eJ
.	8cL)
.	(8gJ
4r	8b-L
.	8gJ
=55	=55
(4F	8aL
.	8eJ
4D	8fL
.	8c#J
4BB-)	8dL
.	8gJ) 8b-
=56	=56
2C	(4f 4a
.	8eL) 8g
.	8cc'J
4r	8cc'L
.	8cc'J
=57	=57
(4A 4f	(8ddL
.	8ccJ)
4G 4e	(8ccL
.	8b-J)
4F) 4f	(8b-L
.	8aJ)
=58	=58
2B- 2d	(8gL
.	8ddJ
.	8ccL
.	8b-J
4r	8aL
.	8gJ)
=59	=59
*^	*
(4A	2C	(8fL
.	.	8aJ)
4B-)	.	(8gL
.	.	8b-J)
4G	4C	(8eL
.	.	8gJ)
=60	=60	=60
4A	4F	4f
4r	4FF	4r
*v	*v	*
*-	*-
